X:126
M:2/4
L:1/8
K:G
|: d2 bd | BdBG | c2 ac | AcAF | d2 bd | BdBG | AcAF | G2 G,2 :|

